svgs/themed_icon_calendar_31.svg

<svg height="192" width="192" xmlns="http://www.w3.org/2000/svg"><path d="M146 30H46c-8.837 0-16 7.163-16 16v100c0 8.837 7.163 16 16 16h75.373a16 16 0 0 0 11.313-4.686l24.628-24.628A16 16 0 0 0 162 121.373V46c0-8.837-7.163-16-16-16Z" stroke="#000" stroke-width="12" fill="none"/><path d="M73.924 120.792c-2.544 0-5.136-.288-7.776-.864-2.592-.576-4.848-1.44-6.768-2.592-1.536-.816-2.496-1.824-2.88-3.024-.384-1.248-.336-2.4.144-3.456.528-1.056 1.368-1.8 2.52-2.232 1.152-.48 2.472-.36 3.96.36 1.872.912 3.648 1.56 5.328 1.944 1.68.384 3.36.576 5.04.576 5.856 0 8.784-2.184 8.784-6.552 0-4.032-2.736-6.048-8.208-6.048H69.82c-1.584 0-2.808-.384-3.672-1.152-.816-.816-1.224-1.92-1.224-3.312 0-1.44.408-2.544 1.224-3.312.864-.816 2.088-1.224 3.672-1.224h3.168c2.4 0 4.296-.552 5.688-1.656 1.392-1.104 2.088-2.64 2.088-4.608 0-3.936-2.568-5.904-7.704-5.904-1.584 0-3.12.192-4.608.576-1.44.336-3.024.96-4.752 1.872-1.344.672-2.544.792-3.6.36-1.056-.432-1.848-1.176-2.376-2.232-.48-1.056-.576-2.16-.288-3.312.288-1.152 1.128-2.112 2.52-2.88 4.176-2.448 8.88-3.672 14.112-3.672 5.472 0 9.744 1.224 12.816 3.672 3.072 2.448 4.608 5.808 4.608 10.08 0 2.64-.672 4.968-2.016 6.984-1.344 2.016-3.216 3.48-5.616 4.392 2.88.816 5.112 2.328 6.696 4.536 1.632 2.16 2.448 4.776 2.448 7.848 0 4.608-1.704 8.232-5.112 10.872-3.408 2.64-8.064 3.96-13.968 3.96Zm32.66-.792c-3.168 0-4.752-1.536-4.752-4.608 0-3.024 1.584-4.536 4.752-4.536h7.272V81.624l-5.256 3.168c-1.392.816-2.64 1.032-3.744.648s-1.944-1.104-2.52-2.16c-.576-1.056-.744-2.184-.504-3.384.24-1.248 1.032-2.304 2.376-3.168l10.008-6.048a17.78 17.78 0 0 1 3.024-1.512c1.056-.384 2.088-.576 3.096-.576 1.44 0 2.568.384 3.384 1.152.864.768 1.296 1.896 1.296 3.384v37.728h6.552c3.12 0 4.68 1.512 4.68 4.536 0 3.072-1.56 4.608-4.68 4.608h-24.984Z"/></svg>

<?xml version="1.0" encoding="UTF-8" standalone="no"?><svg xmlns:android="http://schemas.android.com/apk/res/android" height="192" width="192" xmlns="http://www.w3.org/2000/svg">
  <path d="M146,30H46C37.163,30 30,37.163 30,46V146C30,154.837 37.163,162 46,162H121.373C125.616,162 129.686,160.314 132.686,157.314L157.314,132.686C160.314,129.686 162,125.616 162,121.373V46C162,37.163 154.837,30 146,30Z" fill="#000000" fill-opacity="0.0" stroke="#000000" stroke-width="12"/>
  <path d="M73.924,120.792C71.38,120.792 68.788,120.504 66.148,119.928C63.556,119.352 61.3,118.488 59.38,117.336C57.844,116.52 56.884,115.512 56.5,114.312C56.116,113.064 56.164,111.912 56.644,110.856C57.172,109.8 58.012,109.056 59.164,108.624C60.316,108.144 61.636,108.264 63.124,108.984C64.996,109.896 66.772,110.544 68.452,110.928C70.132,111.312 71.812,111.504 73.492,111.504C79.348,111.504 82.276,109.32 82.276,104.952C82.276,100.92 79.54,98.904 74.068,98.904H69.82C68.236,98.904 67.012,98.52 66.148,97.752C65.332,96.936 64.924,95.832 64.924,94.44C64.924,93 65.332,91.896 66.148,91.128C67.012,90.312 68.236,89.904 69.82,89.904H72.988C75.388,89.904 77.284,89.352 78.676,88.248C80.068,87.144 80.764,85.608 80.764,83.64C80.764,79.704 78.196,77.736 73.06,77.736C71.476,77.736 69.94,77.928 68.452,78.312C67.012,78.648 65.428,79.272 63.7,80.184C62.356,80.856 61.156,80.976 60.1,80.544C59.044,80.112 58.252,79.368 57.724,78.312C57.244,77.256 57.148,76.152 57.436,75C57.724,73.848 58.564,72.888 59.956,72.12C64.132,69.672 68.836,68.448 74.068,68.448C79.54,68.448 83.812,69.672 86.884,72.12C89.956,74.568 91.492,77.928 91.492,82.2C91.492,84.84 90.82,87.168 89.476,89.184C88.132,91.2 86.26,92.664 83.86,93.576C86.74,94.392 88.972,95.904 90.556,98.112C92.188,100.272 93.004,102.888 93.004,105.96C93.004,110.568 91.3,114.192 87.892,116.832C84.484,119.472 79.828,120.792 73.924,120.792ZM106.584,120C103.416,120 101.832,118.464 101.832,115.392C101.832,112.368 103.416,110.856 106.584,110.856H113.856V81.624L108.6,84.792C107.208,85.608 105.96,85.824 104.856,85.44C103.752,85.056 102.912,84.336 102.336,83.28C101.76,82.224 101.592,81.096 101.832,79.896C102.072,78.648 102.864,77.592 104.208,76.728L114.216,70.68C115.224,70.056 116.232,69.552 117.24,69.168C118.296,68.784 119.328,68.592 120.336,68.592C121.776,68.592 122.904,68.976 123.72,69.744C124.584,70.512 125.016,71.64 125.016,73.128V110.856H131.568C134.688,110.856 136.248,112.368 136.248,115.392C136.248,118.464 134.688,120 131.568,120H106.584Z" fill="#000000"/>
</svg>
